**kern	**kern	**dynam
*part1	*part1	*part1
*staff2	*staff1	*
*I"Piano	*	*
*clefF4	*clefG2	*
*k[f#c#]	*k[f#c#]	*
=1	=1	=1
!	!	!LO:DY:a
4BBB 4FF# 4BB	4F# 4B 4d 4f#	p
4BBB 4FF# 4BB	4F# 4B 4d 4f#	.
4BBB 4FF# 4BB	4F# 4B 4d 4f#	.
=	=	=
2.CC# 2.FF# 2.C#	2.F# 2.A#X 2.e 2.f#	>
=	=	=
4BBB 4BB	4F# 4B 4d 4f#	]
4DD 4D	4F# 4B 4d 4f#	.
4BBB 4BB	4F# 4B 4d 4f#	.
=	=	=
2.FFF# 2.FF#	2.F# 2.A#X 2.c# 2.f#	>
=	=	=
4.FF# 4.C# 4.F#	4.A#X 4.c# 4.f# 4.a#X	] >
8FF# 8C# 8F#	8A# 8c# 8f#	]
4FF#; 4C# 4F#	4A#; 4c# 4f#	.
*	*clefF4	*
=	=	=
4FFF# 4FF#	4G 4e 4g	.
4FFF# 4FF#	4F# 4d 4f#	.
4FFF# 4FF#	4E 4c# 4e	.
=	=	=
4.FFF# 4.FF#	4.F# 4.d 4.f#	>
8FFF# 8FF#	8E 8c# 8e	]
4FFF# 4FF#	4D 4B 4d	.
=	=	=
4FFF# 4FF#	4G 4e 4g	.
4FFF# 4FF#	4F# 4d 4f#	.
4FFF# 4FF#	4E 4c# 4e	.
=	=	=
*-	*-	*-
!!!system-decoration: {(s1,s2)}
